src/assets/img/check.svg

<svg width="50" height="52" viewBox="0 0 50 52" fill="none" xmlns="http://www.w3.org/2000/svg">
<path d="M32.9714 19.4823L22.9529 30.7045L17.8688 25.621C17.521 25.2732 16.9578 25.2732 16.61 25.621C16.2622 25.9688 16.2622 26.5321 16.61 26.8799L22.3599 32.6298C22.5267 32.7972 22.7534 32.8904 22.9897 32.8904C22.998 32.8904 23.0063 32.8904 23.0146 32.8898C23.2597 32.8827 23.4906 32.7758 23.6538 32.593L34.3002 20.6682C34.6279 20.3014 34.5958 19.7387 34.229 19.4111C33.861 19.0841 33.2996 19.1161 32.9714 19.4823Z" fill="#12C296"/>
<path d="M49.9721 25.9985C49.9887 25.9309 50 25.8608 50 25.7878C50 23.415 47.5387 22.1888 45.3664 21.1062C43.8245 20.3382 42.2309 19.5435 41.8065 18.5422C41.3744 17.5202 41.9846 15.8548 42.5733 14.2434C43.3948 11.9981 44.2435 9.67692 42.6772 8.11182C41.1412 6.57581 38.8953 7.09572 36.7225 7.6008C35.2019 7.95335 33.6285 8.31717 32.5809 7.87441C31.5583 7.44174 30.7084 6.1004 29.8864 4.80179C28.694 2.92095 27.3438 0.788452 25 0.788452C22.652 0.788452 21.3273 2.96724 20.1593 4.89023C19.3486 6.22504 18.5099 7.60436 17.4885 8.03644C16.4445 8.47861 14.8545 8.07799 13.3173 7.69161C11.1272 7.14202 8.86294 6.57106 7.32337 8.11241C5.76777 9.66742 6.52153 12.0005 7.25155 14.2577C7.77266 15.8679 8.31097 17.5333 7.87533 18.5642C7.45038 19.5696 5.92742 20.3572 4.45373 21.1193C2.36634 22.1983 0 23.4215 0 25.789C0 25.8626 0.0118705 25.9333 0.0284889 26.0015C0.0118705 26.0692 0.000593754 26.1392 0.000593754 26.2122C0.000593754 28.5797 2.36693 29.803 4.45491 30.882C5.92742 31.6435 7.45097 32.431 7.87593 33.4365C8.31157 34.4674 7.77325 36.1328 7.25214 37.7436C6.52272 40.0001 5.76836 42.3326 7.32337 43.8882C8.86413 45.4296 11.1284 44.8604 13.3179 44.309C14.8556 43.9233 16.4463 43.5238 17.4897 43.9654C18.5105 44.3969 19.3491 45.7762 20.1599 47.1104C21.3285 49.0328 22.6526 51.2116 25.0006 51.2116C27.3444 51.2116 28.6952 49.0791 29.887 47.1983C30.7096 45.8997 31.5595 44.5583 32.5803 44.1256C33.6321 43.6817 35.2025 44.0461 36.7225 44.3993C38.8941 44.9031 41.1412 45.4254 42.676 43.8888C44.2441 42.3231 43.3948 40.0013 42.5733 37.7566C41.984 36.1453 41.3744 34.4799 41.8059 33.459C42.2309 32.4572 43.8245 31.6624 45.3664 30.8944C47.5381 29.8125 50 28.5857 50 26.2128C50.0006 26.1374 49.9887 26.0668 49.9721 25.9985ZM44.5729 29.2985C42.7419 30.2107 40.8486 31.1544 40.1666 32.7634C39.4621 34.4312 40.1939 36.4319 40.9014 38.3662C41.559 40.1651 42.181 41.8655 41.4172 42.6276C40.5809 43.4657 38.9013 43.0757 37.1249 42.6638C35.3277 42.2472 33.4694 41.8157 31.8871 42.4846C30.3529 43.1339 29.3516 44.715 28.383 46.2439C27.345 47.882 26.3645 49.4293 25.0006 49.4293C23.6539 49.4293 22.696 47.8529 21.6811 46.1839C20.7237 44.6082 19.7331 42.9784 18.1829 42.3237C16.5893 41.6483 14.7061 42.1219 12.8828 42.5807C11.0963 43.0288 9.40897 43.455 8.58221 42.6276C7.79699 41.843 8.35489 40.1171 8.94544 38.2896C9.56685 36.3696 10.2084 34.3837 9.51521 32.7415C8.83979 31.1437 7.02602 30.206 5.27218 29.2985C3.4768 28.3708 1.78054 27.4942 1.78054 26.2104C1.78054 26.1368 1.76867 26.0662 1.75205 25.9974C1.76867 25.9297 1.77995 25.8597 1.77995 25.7867C1.77995 24.5029 3.47562 23.6263 5.271 22.6986C7.02542 21.7917 8.83979 20.854 9.51462 19.255C10.2078 17.6134 9.56625 15.6281 8.94485 13.7075C8.3543 11.88 7.7958 10.1541 8.58221 9.36888C9.40719 8.54212 11.0946 8.96707 12.8822 9.41636C14.7043 9.87396 16.5875 10.3494 18.1817 9.67395C19.732 9.01871 20.7225 7.38892 21.6811 5.81314C22.6954 4.14359 23.6533 2.56721 25 2.56721C26.3639 2.56721 27.3444 4.1145 28.3818 5.75319C29.351 7.28209 30.3523 8.86321 31.8871 9.51311C33.4694 10.182 35.3277 9.75051 37.1249 9.33327C38.9013 8.92137 40.5803 8.53143 41.4178 9.37007C42.1804 10.1315 41.5584 11.8314 40.9008 13.6309C40.1933 15.5658 39.4615 17.5665 40.1666 19.2349C40.8474 20.8433 42.7413 21.787 44.5723 22.6992C46.4478 23.6334 48.2194 24.5165 48.2194 25.7867C48.2194 25.8603 48.2313 25.9309 48.2479 25.9991C48.2313 26.0668 48.22 26.1368 48.22 26.2098C48.22 27.4817 46.4484 28.3643 44.5729 29.2985Z" fill="#12C296"/>
</svg>

<svg xmlns="http://www.w3.org/2000/svg" width="50" height="52" fill="none"><path fill="#12C296" d="M32.971 19.482 22.953 30.705l-5.084-5.084a.89.89 0 1 0-1.259 1.259l5.75 5.75c.167.167.393.26.63.26h.025a.89.89 0 0 0 .639-.297L34.3 20.668a.89.89 0 1 0-1.329-1.186Z"/><path fill="#12C296" d="M49.972 25.998a.88.88 0 0 0 .028-.21c0-2.373-2.461-3.6-4.634-4.682-1.541-.768-3.135-1.563-3.56-2.564-.432-1.022.179-2.687.767-4.299.822-2.245 1.67-4.566.104-6.131-1.536-1.536-3.782-1.016-5.955-.511-1.52.352-3.093.716-4.141.273-1.023-.432-1.873-1.774-2.695-3.072C28.694 2.92 27.344.788 25 .788c-2.348 0-3.673 2.18-4.84 4.102-.811 1.335-1.65 2.714-2.672 3.146-1.043.443-2.633.042-4.17-.344-2.19-.55-4.455-1.12-5.995.42-1.555 1.555-.801 3.889-.071 6.146.52 1.61 1.059 3.275.623 4.306-.425 1.006-1.948 1.793-3.421 2.555C2.366 22.2 0 23.422 0 25.79c0 .074.012.144.028.212a.88.88 0 0 0-.027.211c0 2.368 2.366 3.591 4.454 4.67 1.472.761 2.996 1.549 3.42 2.555.437 1.03-.102 2.696-.623 4.307-.73 2.256-1.484 4.589.071 6.144 1.541 1.542 3.805.972 5.995.421 1.538-.386 3.128-.785 4.172-.344 1.02.432 1.86 1.811 2.67 3.145 1.168 1.923 2.493 4.102 4.84 4.102 2.344 0 3.695-2.133 4.887-4.014.823-1.298 1.672-2.64 2.693-3.072 1.052-.444 2.623-.08 4.142.273 2.172.504 4.42 1.026 5.954-.51 1.568-1.566.719-3.888-.103-6.132-.589-1.612-1.199-3.277-.767-4.298.425-1.002 2.019-1.797 3.56-2.565C47.538 29.813 50 28.586 50 26.213a.87.87 0 0 0-.028-.215Zm-5.4 3.3c-1.83.913-3.723 1.856-4.405 3.465-.705 1.668.027 3.669.734 5.603.658 1.8 1.28 3.5.516 4.262-.836.838-2.516.448-4.292.036-1.797-.417-3.656-.848-5.238-.18-1.534.65-2.535 2.231-3.504 3.76-1.038 1.638-2.018 3.185-3.382 3.185-1.347 0-2.305-1.576-3.32-3.245-.957-1.576-1.948-3.206-3.498-3.86-1.594-.676-3.477-.202-5.3.257-1.787.448-3.474.874-4.3.047-.786-.785-.228-2.51.362-4.338.622-1.92 1.263-3.906.57-5.548-.675-1.598-2.489-2.536-4.243-3.443-1.795-.928-3.491-1.805-3.491-3.089a.903.903 0 0 0-.029-.213.88.88 0 0 0 .028-.21c0-1.284 1.696-2.16 3.491-3.088 1.754-.907 3.569-1.845 4.244-3.444.693-1.642.051-3.627-.57-5.547-.59-1.828-1.15-3.554-.363-4.34.825-.826 2.513-.4 4.3.048 1.822.458 3.705.933 5.3.258 1.55-.655 2.54-2.285 3.5-3.86 1.013-1.67 1.971-3.247 3.318-3.247 1.364 0 2.344 1.547 3.382 3.186.969 1.53 1.97 3.11 3.505 3.76 1.582.669 3.44.238 5.238-.18 1.776-.412 3.455-.802 4.293.037.762.762.14 2.461-.517 4.26-.708 1.936-1.44 3.937-.734 5.605.68 1.608 2.574 2.552 4.405 3.464 1.876.934 3.647 1.817 3.647 3.088 0 .073.012.144.029.212a.881.881 0 0 0-.028.21c0 1.273-1.772 2.155-3.647 3.09Z"/></svg>
